.local/share/icons/Gruvbox-Plus-Dark/actions/16/view-dual.svg

<svg xmlns="http://www.w3.org/2000/svg" width="16" height="16" viewBox="0 0 16 16">
 <defs>
  <style id="current-color-scheme" type="text/css">
   .ColorScheme-Text { color:#ebdbb2; } .ColorScheme-Highlight { color:#458588; }
  </style>
 </defs>
 <path style="fill:currentColor" class="ColorScheme-Text" d="M 0 1 L 0 15 C 5.3333 14.998 10.667 15.005906 16 15.003906 L 16 1.0039062 C 10.6667 1.0059062 5.333 0.998 0 1 z M 7 3 L 7 13.003906 L 2 13.005859 L 2 3.0039062 L 7 3 z M 9 3.0039062 L 14 3.0039062 L 14 13.005859 L 9 13.005859 L 9 3.0039062 z"/>
</svg>

<svg width="16" height="16" version="1.1" xmlns="http://www.w3.org/2000/svg">
  <defs>
    <style id="current-color-scheme" type="text/css">.ColorScheme-Text { color:#ebdbb2; } .ColorScheme-Highlight { color:#458588; }</style>
  </defs>
  <path class="ColorScheme-Text" d="m0 1v14h16v-14zm7 12-5 1e-3v-10l5-0.00198zm2-9.996 5-0.00491v10l-5 0.0049z" fill="currentColor"/>
</svg>
